; generated by PrusaSlicer 2.3.3+linux-x64-GTK3 on 2021-09-04 at 09:04:02 UTC

; 

; external perimeters extrusion width = 0.60mm
; perimeters extrusion width = 0.43mm
; infill extrusion width = 0.45mm
; solid infill extrusion width = 0.70mm
; top infill extrusion width = 0.45mm
; first layer extrusion width = 0.42mm

M73 P0 R31
M201 X9000 Y9000 Z500 E10000 ; sets maximum accelerations, mm/sec^2
M203 X500 Y500 Z12 E120 ; sets maximum feedrates, mm/sec
M204 P2000 R1500 T2000 ; sets acceleration (P, T) and retract acceleration (R), mm/sec^2
M205 X10.00 Y10.00 Z0.20 E2.50 ; sets the jerk limits, mm/sec
M205 S0 T0 ; sets the minimum extruding and travel feed rate, mm/sec
M107 ; disable fan
;TYPE:Custom
M862.3 P "MK2S" ; printer model check
M862.1 P0.4 ; nozzle diameter check
M115 U3.2.3 ; tell printer latest fw version
G90 ; use absolute coordinates
M83 ; extruder relative mode
M204 S2000 T1500 ; MK2 firmware only supports the old M204 format
M104 S215 ; set extruder temp
M140 S60 ; set bed temp
M190 S60 ; wait for bed temp
M109 S215 ; wait for extruder temp
G28 W ; home all without mesh bed level
G80 ; mesh bed leveling
G1 Y-3.0 F1000.0 ; go outside print area
G92 E0.0
G1 X60.0 E9.0  F1000.0 ; intro line
G1 X100.0 E12.5 F1000.0 ; intro line
G92 E0.0
G21 ; set units to millimeters
G90 ; use absolute coordinates
M83 ; use relative distances for extrusion
M900 K0.05 ; Filament gcode LA 1.5
M900 K30 ; Filament gcode LA 1.0
;LAYER_CHANGE
;Z:0.2
;HEIGHT:0.2
;BEFORE_LAYER_CHANGE
G92 E0.0
;0.2


G1 E-0.80000 F2100.000 ; retract
G1 Z0.400 F10800.000 ; lift Z
;AFTER_LAYER_CHANGE
;0.2
G1 X97.028 Y81.743 ; move to first skirt point
G1 Z0.200 ; restore layer Z
G1 E0.80000 F2100.000 ; unretract
M204 S1000 ; adjust acceleration
;TYPE:Skirt
;WIDTH:0.42
G1 F1200.000
G1 X99.392 Y79.164 E0.10969 ; skirt
G1 X101.991 Y76.824 E0.10963 ; skirt
G1 X105.044 Y74.585 E0.11873 ; skirt
G1 X108.059 Y72.809 E0.10970 ; skirt
G1 X111.225 Y71.332 E0.10956 ; skirt
G1 X114.519 Y70.166 E0.10956 ; skirt
G1 X117.918 Y69.319 E0.10984 ; skirt
G1 X121.666 Y68.776 E0.11874 ; skirt
G1 X125.154 Y68.623 E0.10945 ; skirt
G1 X128.653 Y68.807 E0.10987 ; skirt
G1 X132.396 Y69.383 E0.11873 ; skirt
G1 X135.783 Y70.258 E0.10970 ; skirt
G1 X139.067 Y71.453 E0.10956 ; skirt
G1 X142.221 Y72.957 E0.10956 ; skirt
G1 X145.223 Y74.762 E0.10984 ; skirt
G1 X148.257 Y77.028 E0.11874 ; skirt
G1 X150.836 Y79.392 E0.10969 ; skirt
G1 X153.176 Y81.991 E0.10963 ; skirt
G1 X155.415 Y85.044 E0.11873 ; skirt
G1 X157.191 Y88.059 E0.10970 ; skirt
G1 X158.668 Y91.225 E0.10955 ; skirt
G1 X159.834 Y94.519 E0.10956 ; skirt
G1 X160.681 Y97.918 E0.10984 ; skirt
G1 X161.195 Y101.368 E0.10934 ; skirt
G1 X161.377 Y105.150 E0.11872 ; skirt
G1 X161.194 Y108.644 E0.10970 ; skirt
G1 X160.677 Y112.102 E0.10963 ; skirt
G1 X159.745 Y115.772 E0.11874 ; skirt
G1 X158.547 Y119.067 E0.10991 ; skirt
G1 X157.043 Y122.221 E0.10955 ; skirt
G1 X155.238 Y125.223 E0.10984 ; skirt
G1 X152.972 Y128.257 E0.11874 ; skirt
G1 X150.608 Y130.836 E0.10970 ; skirt
G1 X148.009 Y133.176 E0.10963 ; skirt
G1 X144.956 Y135.415 E0.11873 ; skirt
G1 X141.941 Y137.191 E0.10970 ; skirt
G1 X138.775 Y138.668 E0.10956 ; skirt
G1 X135.481 Y139.834 E0.10955 ; skirt
G1 X132.082 Y140.681 E0.10984 ; skirt
G1 X128.334 Y141.224 E0.11874 ; skirt
G1 X124.839 Y141.377 E0.10969 ; skirt
G1 X121.347 Y141.193 E0.10963 ; skirt
M73 P0 R30
G1 X117.604 Y140.617 E0.11873 ; skirt
G1 X114.217 Y139.742 E0.10970 ; skirt
G1 X110.933 Y138.547 E0.10956 ; skirt
G1 X107.779 Y137.043 E0.10956 ; skirt
G1 X104.777 Y135.238 E0.10984 ; skirt
G1 X101.743 Y132.972 E0.11874 ; skirt
G1 X99.164 Y130.608 E0.10969 ; skirt
G1 X96.824 Y128.009 E0.10963 ; skirt
G1 X94.585 Y124.956 E0.11873 ; skirt
G1 X92.809 Y121.941 E0.10970 ; skirt
G1 X91.332 Y118.775 E0.10956 ; skirt
G1 X90.166 Y115.481 E0.10956 ; skirt
G1 X89.319 Y112.082 E0.10984 ; skirt
G1 X88.776 Y108.334 E0.11874 ; skirt
G1 X88.623 Y104.839 E0.10969 ; skirt
G1 X88.807 Y101.347 E0.10963 ; skirt
G1 X89.383 Y97.604 E0.11873 ; skirt
G1 X90.258 Y94.217 E0.10970 ; skirt
G1 X91.453 Y90.933 E0.10956 ; skirt
G1 X92.957 Y87.779 E0.10956 ; skirt
G1 X94.762 Y84.777 E0.10984 ; skirt
G1 X96.993 Y81.791 E0.11686 ; skirt
;WIPE_START
G1 F8640.000
G1 X99.212 Y79.361 E-0.76000 ; wipe and retract
;WIPE_END
M73 P1 R30
G1 E-0.04000 F2100.000 ; retract
G1 Z0.600 F10800.000 ; lift Z
G1 X95.188 Y80.320 ; move to first brim point
G1 Z0.200 ; restore layer Z
G1 E0.80000 F2100.000 ; unretract
G1 F1200.000
G1 X95.628 Y79.781 E0.02181 ; brim
G1 X96.848 Y78.426 E0.05716 ; brim
G1 X98.184 Y77.078 E0.05950 ; brim
G1 X99.529 Y75.846 E0.05719 ; brim
G1 X101.074 Y74.565 E0.06293 ; brim
G1 X102.437 Y73.541 E0.05346 ; brim
G1 X104.080 Y72.425 E0.06227 ; brim
G1 X105.554 Y71.525 E0.05414 ; brim
G1 X107.326 Y70.557 E0.06331 ; brim
G1 X109.087 Y69.708 E0.06130 ; brim
G1 X110.886 Y68.951 E0.06119 ; brim
G1 X112.612 Y68.322 E0.05759 ; brim
G1 X114.429 Y67.758 E0.05968 ; brim
G1 X116.385 Y67.257 E0.06328 ; brim
G1 X118.063 Y66.913 E0.05372 ; brim
G1 X120.046 Y66.605 E0.06292 ; brim
G1 X121.749 Y66.423 E0.05371 ; brim
G1 X123.753 Y66.307 E0.06294 ; brim
G1 X125.577 Y66.291 E0.05719 ; brim
G1 X127.473 Y66.366 E0.05950 ; brim
G1 X129.283 Y66.524 E0.05697 ; brim
G1 X131.287 Y66.800 E0.06341 ; brim
G1 X133.263 Y67.179 E0.06308 ; brim
G1 X134.940 Y67.585 E0.05411 ; brim
G1 X136.860 Y68.148 E0.06272 ; brim
G1 X138.713 Y68.797 E0.06157 ; brim
G1 X140.530 Y69.538 E0.06151 ; brim
G1 X142.178 Y70.306 E0.05701 ; brim
G1 X143.963 Y71.249 E0.06332 ; brim
G1 X145.635 Y72.245 E0.06101 ; brim
G1 X147.268 Y73.332 E0.06151 ; brim
G1 X148.750 Y74.428 E0.05780 ; brim
G1 X150.220 Y75.628 E0.05949 ; brim
G1 X151.490 Y76.768 E0.05350 ; brim
G1 X152.702 Y77.957 E0.05323 ; brim
G1 X154.066 Y79.429 E0.06292 ; brim
G1 X155.235 Y80.822 E0.05703 ; brim
G1 X156.445 Y82.418 E0.06280 ; brim
G1 X157.571 Y84.075 E0.06281 ; brim
G1 X158.475 Y85.554 E0.05436 ; brim
G1 X159.444 Y87.328 E0.06337 ; brim
G1 X160.296 Y89.097 E0.06158 ; brim
G1 X161.057 Y90.906 E0.06152 ; brim
G1 X161.685 Y92.634 E0.05765 ; brim
G1 X162.275 Y94.546 E0.06274 ; brim
G1 X162.755 Y96.439 E0.06124 ; brim
G1 X163.138 Y98.353 E0.06119 ; brim
G1 X163.402 Y100.095 E0.05526 ; brim
G1 X163.586 Y101.861 E0.05565 ; brim
G1 X163.693 Y103.754 E0.05947 ; brim
G1 X163.711 Y105.465 E0.05365 ; brim
G1 X163.634 Y107.475 E0.06304 ; brim
G1 X163.454 Y109.469 E0.06277 ; brim
G1 X163.199 Y111.288 E0.05761 ; brim
G1 X162.844 Y113.157 E0.05963 ; brim
G1 X162.367 Y115.120 E0.06336 ; brim
G1 X161.847 Y116.875 E0.05738 ; brim
G1 X161.199 Y118.725 E0.06148 ; brim
G1 X160.460 Y120.535 E0.06130 ; brim
G1 X159.601 Y122.363 E0.06332 ; brim
G1 X158.748 Y123.968 E0.05700 ; brim
G1 X157.750 Y125.643 E0.06113 ; brim
G1 X156.668 Y127.268 E0.06120 ; brim
G1 X155.573 Y128.750 E0.05777 ; brim
G1 X154.385 Y130.204 E0.05888 ; brim
G1 X153.234 Y131.488 E0.05405 ; brim
G1 X152.043 Y132.702 E0.05331 ; brim
G1 X150.571 Y134.066 E0.06293 ; brim
G1 X149.178 Y135.235 E0.05703 ; brim
G1 X147.582 Y136.445 E0.06279 ; brim
G1 X145.932 Y137.567 E0.06255 ; brim
G1 X144.428 Y138.485 E0.05527 ; brim
G1 X142.672 Y139.445 E0.06273 ; brim
G1 X140.903 Y140.296 E0.06157 ; brim
G1 X139.094 Y141.057 E0.06151 ; brim
G1 X137.386 Y141.679 E0.05701 ; brim
G1 X135.456 Y142.275 E0.06333 ; brim
G1 X133.550 Y142.757 E0.06163 ; brim
G1 X131.627 Y143.142 E0.06150 ; brim
G1 X129.887 Y143.404 E0.05518 ; brim
G1 X128.139 Y143.586 E0.05509 ; brim
G1 X126.246 Y143.693 E0.05947 ; brim
G1 X124.535 Y143.711 E0.05364 ; brim
G1 X122.525 Y143.634 E0.06305 ; brim
G1 X120.531 Y143.454 E0.06277 ; brim
G1 X118.710 Y143.199 E0.05767 ; brim
G1 X116.773 Y142.829 E0.06183 ; brim
G1 X115.060 Y142.415 E0.05526 ; brim
G1 X113.140 Y141.852 E0.06273 ; brim
G1 X111.287 Y141.203 E0.06157 ; brim
G1 X109.470 Y140.462 E0.06151 ; brim
G1 X107.825 Y139.695 E0.05694 ; brim
G1 X106.140 Y138.809 E0.05967 ; brim
G1 X104.404 Y137.780 E0.06328 ; brim
G1 X102.974 Y136.837 E0.05372 ; brim
G1 X101.354 Y135.653 E0.06292 ; brim
G1 X100.021 Y134.577 E0.05371 ; brim
G1 X98.522 Y133.242 E0.06292 ; brim
G1 X97.298 Y132.044 E0.05371 ; brim
G1 X95.934 Y130.571 E0.06294 ; brim
G1 X94.765 Y129.178 E0.05703 ; brim
G1 X93.555 Y127.582 E0.06279 ; brim
G1 X92.434 Y125.933 E0.06253 ; brim
G1 X91.525 Y124.446 E0.05464 ; brim
G1 X90.556 Y122.673 E0.06335 ; brim
G1 X89.708 Y120.913 E0.06125 ; brim
G1 X88.951 Y119.114 E0.06119 ; brim
G1 X88.322 Y117.388 E0.05759 ; brim
G1 X87.758 Y115.572 E0.05963 ; brim
G1 X87.258 Y113.615 E0.06333 ; brim
G1 X86.913 Y111.937 E0.05372 ; brim
G1 X86.605 Y109.954 E0.06292 ; brim
G1 X86.423 Y108.251 E0.05371 ; brim
G1 X86.307 Y106.248 E0.06292 ; brim
G1 X86.289 Y104.535 E0.05371 ; brim
G1 X86.366 Y102.529 E0.06294 ; brim
G1 X86.524 Y100.717 E0.05703 ; brim
G1 X86.796 Y98.742 E0.06249 ; brim
G1 X87.171 Y96.773 E0.06286 ; brim
G1 X87.585 Y95.060 E0.05527 ; brim
G1 X88.148 Y93.140 E0.06273 ; brim
G1 X88.797 Y91.287 E0.06157 ; brim
G1 X89.538 Y89.470 E0.06151 ; brim
G1 X90.306 Y87.823 E0.05698 ; brim
G1 X91.225 Y86.080 E0.06177 ; brim
G1 X92.221 Y84.402 E0.06120 ; brim
G1 X93.228 Y82.881 E0.05719 ; brim
G1 X94.388 Y81.301 E0.06146 ; brim
G1 X95.151 Y80.366 E0.03782 ; brim
G1 X95.443 Y80.605 F10800.000 ; move to first brim point
G1 F1200.000
G1 X95.917 Y80.023 E0.02354 ; brim
G1 X97.119 Y78.688 E0.05630 ; brim
G1 X98.449 Y77.347 E0.05922 ; brim
G1 X99.773 Y76.133 E0.05632 ; brim
G1 X101.304 Y74.864 E0.06236 ; brim
G1 X102.653 Y73.851 E0.05290 ; brim
G1 X104.281 Y72.745 E0.06171 ; brim
G1 X105.739 Y71.854 E0.05357 ; brim
G1 X107.494 Y70.894 E0.06271 ; brim
G1 X109.238 Y70.054 E0.06070 ; brim
G1 X111.028 Y69.301 E0.06090 ; brim
G1 X112.728 Y68.681 E0.05673 ; brim
G1 X114.537 Y68.119 E0.05939 ; brim
G1 X116.474 Y67.624 E0.06269 ; brim
G1 X118.134 Y67.283 E0.05315 ; brim
G1 X120.099 Y66.978 E0.06235 ; brim
G1 X121.784 Y66.799 E0.05314 ; brim
G1 X123.770 Y66.683 E0.06237 ; brim
G1 X125.567 Y66.668 E0.05632 ; brim
G1 X127.454 Y66.742 E0.05922 ; brim
G1 X129.236 Y66.899 E0.05611 ; brim
G1 X131.221 Y67.172 E0.06281 ; brim
G1 X133.179 Y67.546 E0.06250 ; brim
G1 X134.838 Y67.948 E0.05355 ; brim
G1 X136.740 Y68.505 E0.06213 ; brim
G1 X138.575 Y69.148 E0.06097 ; brim
G1 X140.383 Y69.885 E0.06122 ; brim
G1 X142.006 Y70.642 E0.05614 ; brim
G1 X143.775 Y71.576 E0.06272 ; brim
G1 X145.438 Y72.566 E0.06070 ; brim
G1 X147.055 Y73.643 E0.06091 ; brim
G1 X148.515 Y74.723 E0.05694 ; brim
G1 X149.978 Y75.918 E0.05921 ; brim
G1 X151.235 Y77.046 E0.05296 ; brim
G1 X152.435 Y78.223 E0.05270 ; brim
G1 X153.786 Y79.682 E0.06235 ; brim
G1 X154.937 Y81.054 E0.05616 ; brim
G1 X156.142 Y82.642 E0.06250 ; brim
G1 X157.257 Y84.283 E0.06221 ; brim
G1 X158.146 Y85.739 E0.05350 ; brim
G1 X159.107 Y87.496 E0.06277 ; brim
G1 X159.951 Y89.248 E0.06098 ; brim
G1 X160.707 Y91.048 E0.06122 ; brim
G1 X161.326 Y92.750 E0.05678 ; brim
G1 X161.911 Y94.643 E0.06213 ; brim
G1 X162.388 Y96.527 E0.06094 ; brim
G1 X162.768 Y98.422 E0.06060 ; brim
G1 X163.028 Y100.147 E0.05470 ; brim
G1 X163.210 Y101.887 E0.05482 ; brim
G1 X163.317 Y103.771 E0.05919 ; brim
G1 X163.334 Y105.465 E0.05309 ; brim
G1 X163.258 Y107.455 E0.06246 ; brim
G1 X163.079 Y109.430 E0.06217 ; brim
G1 X162.828 Y111.222 E0.05674 ; brim
G1 X162.475 Y113.081 E0.05934 ; brim
G1 X162.002 Y115.027 E0.06276 ; brim
G1 X161.487 Y116.763 E0.05679 ; brim
G1 X160.844 Y118.596 E0.06090 ; brim
G1 X160.112 Y120.388 E0.06070 ; brim
G1 X159.262 Y122.199 E0.06272 ; brim
G1 X158.422 Y123.779 E0.05613 ; brim
G1 X157.434 Y125.438 E0.06054 ; brim
G1 X156.357 Y127.055 E0.06091 ; brim
G1 X155.278 Y128.515 E0.05691 ; brim
M73 P2 R30
G1 X154.095 Y129.962 E0.05860 ; brim
G1 X152.956 Y131.233 E0.05351 ; brim
G1 X151.777 Y132.435 E0.05278 ; brim
G1 X150.318 Y133.786 E0.06236 ; brim
G1 X148.946 Y134.937 E0.05616 ; brim
G1 X147.366 Y136.136 E0.06219 ; brim
G1 X145.724 Y137.252 E0.06225 ; brim
G1 X144.243 Y138.157 E0.05441 ; brim
G1 X142.504 Y139.107 E0.06213 ; brim
G1 X140.743 Y139.955 E0.06127 ; brim
G1 X138.952 Y140.707 E0.06091 ; brim
G1 X137.270 Y141.320 E0.05614 ; brim
G1 X135.359 Y141.910 E0.06273 ; brim
G1 X133.462 Y142.391 E0.06133 ; brim
G1 X131.558 Y142.771 E0.06091 ; brim
G1 X129.835 Y143.030 E0.05462 ; brim
G1 X128.113 Y143.210 E0.05427 ; brim
G1 X126.229 Y143.317 E0.05919 ; brim
G1 X124.536 Y143.334 E0.05309 ; brim
G1 X122.545 Y143.258 E0.06247 ; brim
G1 X120.570 Y143.079 E0.06217 ; brim
G1 X118.776 Y142.828 E0.05680 ; brim
G1 X116.848 Y142.460 E0.06154 ; brim
G1 X115.162 Y142.052 E0.05441 ; brim
G1 X113.260 Y141.495 E0.06213 ; brim
G1 X111.425 Y140.852 E0.06097 ; brim
G1 X109.617 Y140.115 E0.06122 ; brim
G1 X107.996 Y139.359 E0.05608 ; brim
G1 X106.320 Y138.477 E0.05938 ; brim
G1 X104.600 Y137.458 E0.06269 ; brim
G1 X103.185 Y136.525 E0.05315 ; brim
G1 X101.580 Y135.351 E0.06235 ; brim
G1 X100.261 Y134.286 E0.05314 ; brim
G1 X98.776 Y132.964 E0.06235 ; brim
G1 X97.566 Y131.778 E0.05314 ; brim
G1 X96.214 Y130.318 E0.06237 ; brim
G1 X95.063 Y128.946 E0.05616 ; brim
G1 X93.864 Y127.366 E0.06219 ; brim
G1 X92.748 Y125.725 E0.06223 ; brim
G1 X91.854 Y124.261 E0.05379 ; brim
G1 X90.893 Y122.505 E0.06275 ; brim
G1 X90.050 Y120.753 E0.06095 ; brim
G1 X89.301 Y118.972 E0.06060 ; brim
G1 X88.681 Y117.272 E0.05673 ; brim
G1 X88.120 Y115.465 E0.05934 ; brim
G1 X87.624 Y113.526 E0.06274 ; brim
G1 X87.283 Y111.866 E0.05315 ; brim
G1 X86.978 Y109.901 E0.06235 ; brim
G1 X86.799 Y108.216 E0.05314 ; brim
G1 X86.683 Y106.230 E0.06235 ; brim
G1 X86.666 Y104.536 E0.05314 ; brim
G1 X86.742 Y102.548 E0.06236 ; brim
G1 X86.899 Y100.764 E0.05616 ; brim
G1 X87.169 Y98.799 E0.06219 ; brim
G1 X87.540 Y96.848 E0.06225 ; brim
G1 X87.948 Y95.162 E0.05441 ; brim
G1 X88.505 Y93.260 E0.06213 ; brim
G1 X89.148 Y91.425 E0.06097 ; brim
G1 X89.885 Y89.617 E0.06122 ; brim
G1 X90.642 Y87.995 E0.05612 ; brim
G1 X91.551 Y86.269 E0.06118 ; brim
G1 X92.543 Y84.599 E0.06091 ; brim
G1 X93.534 Y83.101 E0.05632 ; brim
G1 X94.689 Y81.528 E0.06117 ; brim
G1 X95.405 Y80.651 E0.03549 ; brim
G1 X95.697 Y80.889 F10800.000 ; move to first brim point
G1 F1200.000
G1 X96.207 Y80.265 E0.02528 ; brim
G1 X97.390 Y78.950 E0.05544 ; brim
G1 X98.713 Y77.616 E0.05894 ; brim
G1 X100.017 Y76.421 E0.05546 ; brim
G1 X101.534 Y75.163 E0.06179 ; brim
G1 X102.869 Y74.160 E0.05233 ; brim
G1 X104.482 Y73.064 E0.06114 ; brim
G1 X105.924 Y72.182 E0.05300 ; brim
G1 X107.662 Y71.232 E0.06211 ; brim
G1 X109.388 Y70.400 E0.06010 ; brim
G1 X111.170 Y69.650 E0.06060 ; brim
G1 X112.844 Y69.040 E0.05587 ; brim
G1 X114.644 Y68.481 E0.05909 ; brim
G1 X116.563 Y67.990 E0.06209 ; brim
G1 X118.205 Y67.654 E0.05258 ; brim
G1 X120.153 Y67.352 E0.06178 ; brim
G1 X121.820 Y67.174 E0.05257 ; brim
G1 X123.787 Y67.060 E0.06180 ; brim
G1 X125.556 Y67.045 E0.05546 ; brim
G1 X127.434 Y67.119 E0.05893 ; brim
G1 X129.190 Y67.273 E0.05525 ; brim
G1 X131.155 Y67.543 E0.06220 ; brim
G1 X133.094 Y67.914 E0.06191 ; brim
G1 X134.737 Y68.311 E0.05298 ; brim
G1 X136.620 Y68.863 E0.06153 ; brim
G1 X138.446 Y69.502 E0.06066 ; brim
G1 X140.236 Y70.233 E0.06062 ; brim
G1 X141.834 Y70.978 E0.05527 ; brim
G1 X143.586 Y71.902 E0.06212 ; brim
G1 X145.241 Y72.888 E0.06040 ; brim
G1 X146.842 Y73.955 E0.06032 ; brim
G1 X148.280 Y75.018 E0.05608 ; brim
G1 X149.736 Y76.207 E0.05893 ; brim
G1 X150.980 Y77.324 E0.05242 ; brim
G1 X152.167 Y78.489 E0.05217 ; brim
G1 X153.506 Y79.934 E0.06178 ; brim
G1 X154.640 Y81.285 E0.05529 ; brim
G1 X155.832 Y82.858 E0.06189 ; brim
G1 X156.942 Y84.491 E0.06191 ; brim
G1 X157.818 Y85.924 E0.05265 ; brim
G1 X158.769 Y87.664 E0.06217 ; brim
G1 X159.609 Y89.407 E0.06067 ; brim
G1 X160.358 Y91.190 E0.06063 ; brim
G1 X160.967 Y92.865 E0.05591 ; brim
G1 X161.547 Y94.740 E0.06153 ; brim
G1 X162.020 Y96.606 E0.06034 ; brim
G1 X162.397 Y98.492 E0.06031 ; brim
G1 X162.653 Y100.191 E0.05388 ; brim
G1 X162.833 Y101.912 E0.05427 ; brim
G1 X162.940 Y103.788 E0.05892 ; brim
G1 X162.957 Y105.464 E0.05254 ; brim
G1 X162.881 Y107.436 E0.06188 ; brim
G1 X162.704 Y109.391 E0.06156 ; brim
G1 X162.457 Y111.156 E0.05588 ; brim
G1 X162.105 Y113.006 E0.05904 ; brim
G1 X161.637 Y114.933 E0.06216 ; brim
